tools/download-figma-icons/icons/solid/candle.svg

<svg width="24" height="24" viewBox="0 0 24 24" fill="none" xmlns="http://www.w3.org/2000/svg">
<path fill-rule="evenodd" clip-rule="evenodd" d="M19.5 23.25C19.5 23.6625 19.1625 24 18.75 24H5.25C4.8375 24 4.5 23.6625 4.5 23.25C4.5 22.8375 4.8375 22.5 5.25 22.5H6.75V12C6.75 9.93 8.43 8.25 10.5 8.25H11.25V7.5C11.25 7.47 11.265 7.44 11.265 7.41C10.0725 7.155 9 6.2925 9 4.875C9 3.6225 10.1775 0 12 0C13.8225 0 15 3.6225 15 4.875C15 6.2925 13.9275 7.155 12.735 7.41C12.735 7.44 12.75 7.47 12.75 7.5V8.25H13.5C15.57 8.25 17.25 9.93 17.25 12V22.5H18.75C19.1625 22.5 19.5 22.8375 19.5 23.25Z" fill="black"/>
</svg>

<svg width="24" height="24" viewBox="0 0 24 24" fill="none" xmlns="http://www.w3.org/2000/svg"><path fill-rule="evenodd" clip-rule="evenodd" d="M19.5 23.25c0 .413-.337.75-.75.75H5.25a.752.752 0 0 1-.75-.75c0-.413.338-.75.75-.75h1.5V12c0-2.07 1.68-3.75 3.75-3.75h.75V7.5c0-.03.015-.06.015-.09C10.072 7.155 9 6.293 9 4.875 9 3.623 10.178 0 12 0s3 3.623 3 4.875c0 1.418-1.072 2.28-2.265 2.535 0 .03.015.06.015.09v.75h.75c2.07 0 3.75 1.68 3.75 3.75v10.5h1.5c.413 0 .75.337.75.75Z" fill="currentColor"/></svg>
